X:1
T:Title
%%score 1 2 ( 3 4 )
L:1/8
Q:1/4=121
M:2/4
K:C
V:1 treble nm="Picked Bass, Treble Voice"
V:2 treble nm="Picked Bass, Tenor Voice"
V:3 bass nm="Picked Bass, Bass Voice"
V:4 bass 
V:1
 z4 | c4 | d2 c2 | e2 e2 | d2 de | .c2 cB | .A2 AB | cc de | c4 | c2 z2 | c4 | d2 c2 | e2 e2 | %13
 .d2 de | .c2 cB | .A2 AB | .cc de | c4 | c2 z2 | e3 c | d4 | e4 | A4 | c2 cA | c2 .ee | .cc de | %26
 c4 | c4 |] %28
V:2
 z4 | C4 | .A,2 A,2 | C2 C[K:bass]A, | G,2 G,E, | G,2 E,G, | A,2 A,G, | E,[K:treble]G, A,C | C4 | %9
 C2 z2 | C4 | A,2 A,2 | C2 C[K:bass]A, | G,2 G,E, | G,2 E,G, | A,2 A,G, | E,[K:treble]G, A,.C | %17
 C4 | C2 z2 | C3 E | G4 | .D2 C2 | E4 | .A,2 CA, | G,2 .G,G, | E,[K:treble]G, A,.C | C4 | C2 z2 |] %28
V:3
 z4 | C,4 | D,2 E,2 | .C,2 C,2 | G,2 G,E, | C,2 .E,E, | .D,2 D,E, | .[C,G,].[C,G,] A,.G, | C,4 | %9
 C,2 z2 | C,4 | D,2 E,2 | C,2 z2 | G,2 G,E, | C,2 .E,E, | .D,2 D,E, | .[C,G,].[C,G,] A,G, | C,4 | %18
 C,2 z2 | [C,C]2 z [C,C] | G,4 | [C,C]4 | A,4 | A,2 E,D, | .C,2 .C,.C, | .[C,G,][C,G,] A,G, | C,4 | %27
 C,4 |] %28
V:4
 x4 | x4 | x4 | x4 | x4 | x4 | x4 | x4 | x4 | x4 | x4 | x4 | z2 C,2- | C,2 z2 | x4 | x4 | x4 | x4 | %18
 x4 | x4 | x4 | x4 | x4 | x4 | x4 | x4 | x4 | x4 |] %28

